X:283
T:King’s Waltz. JaW.283
M:3/4
L:1/8
Q:3/4=35
S:James Winder Ms, Lancashire, 1835-41
R:.Waltz
O:England
A:Wyresdale,Lancashire
N:The B Strain looks wrong and doesn’t appear to add up, But when you
N:play it back it works fine..3/8 in Ms..CGP
Z:vmp.Chris Partington, Aug 2004
K:C
“_Key G in MS”c>de>fg>a|aggfg2|c’geceg|gfd3|!
cdefga|aggfg2|c’gecdB|c3:|!
|:”_As Written-NB”G/B/d/ g3 g/e/c/|gfd3|cBcegc’|abc’ag2|!
G/B/d/ g3 g/e/c/|gfd3|cdefgB|c3:|!
|:gGeGcG|gGeGcG|dGBGBG|cGEGce|!
gGeGcG|”_Bar missing in MS”gGeGcG|dGBGBd|c3:|

